images/content/logos/redburn-logo.svg

<svg width="235" height="38" xmlns="http://www.w3.org/2000/svg"><title>logo</title><desc>Created with Sketch.</desc><g fill="none"><g fill="#fff"><path d="M11.9 17c3.1-.7 6.4-3.1 6.4-8.1 0-3.7-2.1-7.7-9.6-7.7h-8.7v28.1h3.1v-12h5.5l6.9 12h3.8l-7.4-12.3zm-8.8-2.8v-10.4h5.4c3.3 0 6.5 1.2 6.5 5.3 0 3.4-2.5 5.1-6.2 5.1h-5.7z" id="Shape"/><polygon id="Shape" points="34 1 49.9 1 49.9 3.8 37.1 3.8 37.1 13.3 49.5 13.3 49.5 16.1 37.1 16.1 37.1 26.3 49.9 26.3 49.9 29.1 34 29.1"/><path d="M75 1h-8.7v28.1h9.9c9 0 13.4-7.2 13.4-14.2-.1-6.6-3.4-13.9-14.6-13.9m.6 25.3h-6.2v-22.5h5.4c8.4 0 11.4 5.4 11.4 11 0 5.8-3.4 11.5-10.6 11.5" id="Shape"/><path d="M118.3 14.5c3.7-.8 4.6-3.9 4.6-7 0-3.5-2.7-6.6-7.6-6.6h-9.1v28.1h9.3c5 0 8.4-3.5 8.4-7.7 0-4.4-2.5-6.5-5.6-6.8zm-8.9-10.9h4.8c3.2 0 5.4 1 5.4 4.8 0 3.3-2.1 5.1-5.5 5.1h-4.7v-9.9zm5.8 22.7h-5.9v-10.2h5.2c4.7 0 6.3 2.8 6.3 5 0 2.8-1.9 5.2-5.6 5.2z" id="Shape"/><path d="M140.2 1h3.1v18.3c0 5.1 2.9 7.5 7.2 7.5 3.9 0 7.2-2.4 7.2-8.1v-17.7h3.1v17.7c0 7.4-4.6 10.9-10.3 10.9-6.8 0-10.3-4-10.3-9.8v-18.8z" id="Shape"/><path d="M190.3 16.8c3.1-.7 6.4-3.1 6.4-8.1 0-3.7-2.1-7.7-9.6-7.7h-8.7v28.1h3.1v-12h5.5l6.9 12h3.9l-7.5-12.3zm-8.8-2.6v-10.4h5.4c3.3 0 6.4 1.1 6.4 5.3 0 3.4-2.5 5.1-6.2 5.1h-5.6z" id="Shape"/><polygon points="212.5 1 215.9 1 231.8 24.2 231.8 24.2 231.8 1 235 1 235 29.1 231.6 29.1 215.8 5.9 215.7 5.9 215.7 29.1 212.5 29.1"/></g><rect fill="#FFC627" y="35.1" width="235" height="2.8"/></g></svg>

<?xml version="1.0" encoding="UTF-8"?>
<svg width="235px" height="38px" viewBox="0 0 235 38" version="1.1" xmlns="http://www.w3.org/2000/svg" xmlns:xlink="http://www.w3.org/1999/xlink">
    <!-- Generator: Sketch 43.2 (39069) - http://www.bohemiancoding.com/sketch -->
    <title>logo</title>
    <desc>Created with Sketch.</desc>
    <defs></defs>
    <g id="Symbols" stroke="none" stroke-width="1" fill="none" fill-rule="evenodd">
        <g id="Folio-/-Content-/-Redburn-Logo" fill-rule="nonzero">
            <g id="logo">
                <g id="wordmark" fill="#FFFFFF">
                    <path d="M11.9,17 C15,16.3 18.3,13.9 18.3,8.9 C18.3,5.2 16.2,1.2 8.7,1.2 L0,1.2 L0,29.3 L3.1,29.3 L3.1,17.3 L8.6,17.3 L15.5,29.3 L19.3,29.3 L11.9,17 Z M3.1,14.2 L3.1,3.8 L8.5,3.8 C11.8,3.8 15,5 15,9.1 C15,12.5 12.5,14.2 8.8,14.2 L3.1,14.2 Z" id="Shape"></path>
                    <polygon id="Shape" points="34 1 49.9 1 49.9 3.8 37.1 3.8 37.1 13.3 49.5 13.3 49.5 16.1 37.1 16.1 37.1 26.3 49.9 26.3 49.9 29.1 34 29.1"></polygon>
                    <path d="M75,1 L66.3,1 L66.3,29.1 L76.2,29.1 C85.2,29.1 89.6,21.9 89.6,14.9 C89.5,8.3 86.2,1 75,1 M75.6,26.3 L69.4,26.3 L69.4,3.8 L74.8,3.8 C83.2,3.8 86.2,9.2 86.2,14.8 C86.2,20.6 82.8,26.3 75.6,26.3" id="Shape"></path>
                    <path d="M118.3,14.5 L118.3,14.5 C122,13.7 122.9,10.6 122.9,7.5 C122.9,4 120.2,0.9 115.3,0.9 L106.2,0.9 L106.2,29 L115.5,29 C120.5,29 123.9,25.5 123.9,21.3 C123.9,16.9 121.4,14.8 118.3,14.5 L118.3,14.5 Z M109.4,3.6 L114.2,3.6 C117.4,3.6 119.6,4.6 119.6,8.4 C119.6,11.7 117.5,13.5 114.1,13.5 L109.4,13.5 L109.4,3.6 Z M115.2,26.3 L109.3,26.3 L109.3,16.1 L114.5,16.1 C119.2,16.1 120.8,18.9 120.8,21.1 C120.8,23.9 118.9,26.3 115.2,26.3 L115.2,26.3 Z" id="Shape"></path>
                    <path d="M140.2,1 L143.3,1 L143.3,19.3 C143.3,24.4 146.2,26.8 150.5,26.8 C154.4,26.8 157.7,24.4 157.7,18.7 L157.7,1 L160.8,1 L160.8,18.7 C160.8,26.1 156.2,29.6 150.5,29.6 C143.7,29.6 140.2,25.6 140.2,19.8 L140.2,1 L140.2,1 Z" id="Shape"></path>
                    <path d="M190.3,16.8 C193.4,16.1 196.7,13.7 196.7,8.7 C196.7,5 194.6,1 187.1,1 L178.4,1 L178.4,29.1 L181.5,29.1 L181.5,17.1 L187,17.1 L193.9,29.1 L197.8,29.1 L190.3,16.8 Z M181.5,14.2 L181.5,3.8 L186.9,3.8 C190.2,3.8 193.3,4.9 193.3,9.1 C193.3,12.5 190.8,14.2 187.1,14.2 L181.5,14.2 Z" id="Shape"></path>
                    <polygon id="Shape" points="212.5 1 215.9 1 231.8 24.2 231.8 24.2 231.8 1 235 1 235 29.1 231.6 29.1 215.8 5.9 215.7 5.9 215.7 29.1 212.5 29.1"></polygon>
                </g>
                <rect id="line" fill="#FFC627" x="0" y="35.1" width="235" height="2.8"></rect>
            </g>
        </g>
    </g>
</svg>
